assets/1. 1-F/Custard/Color/Custard-color.svg

<svg width="100%" height="100%" viewBox="0 0 32 32" xmlns="http://www.w3.org/2000/svg"><path fill="url(#a)" d="M7.97 16.47 5.61 26h20.77l-2.3-9.52c-.2-.87-.98-1.48-1.87-1.48H9.84c-.88 0-1.66.61-1.87 1.47"/><path fill="url(#b)" d="M9.84 15c-.88 0-1.66.61-1.87 1.47L7.34 19H24.7l-.61-2.52c-.21-.87-.99-1.48-1.88-1.48z"/><path fill="url(#c)" d="M4 28c1.28 1.28 3.02 2 4.83 2h14.34c1.81 0 3.55-.72 4.83-2z"/><path fill="url(#d)" d="M4 28c1.28 1.28 3.02 2 4.83 2h14.34c1.81 0 3.55-.72 4.83-2z"/><path fill="url(#e)" d="M29 28H3c-.55 0-1-.45-1-1s.45-1 1-1h26c.55 0 1 .45 1 1s-.45 1-1 1"/><path fill="url(#f)" d="M29 28H3c-.55 0-1-.45-1-1s.45-1 1-1h26c.55 0 1 .45 1 1s-.45 1-1 1"/><path fill="url(#g)" d="M29 28H3c-.55 0-1-.45-1-1s.45-1 1-1h26c.55 0 1 .45 1 1s-.45 1-1 1"/><defs><linearGradient id="a" x1="5.61" x2="26.38" y1="26" y2="26" gradientUnits="userSpaceOnUse"><stop stop-color="#946B53"/><stop offset=".247" stop-color="#A66C3A"/><stop offset=".536" stop-color="#CC8B53"/><stop offset=".753" stop-color="#E0A56C"/><stop offset=".864" stop-color="#E6A567"/><stop offset="1" stop-color="#CC9968"/></linearGradient><linearGradient id="b" x1="7.813" x2="24.7" y1="17.313" y2="17.313" gradientUnits="userSpaceOnUse"><stop stop-color="#714C40"/><stop offset=".248" stop-color="#7A4A39"/><stop offset=".492" stop-color="#955F4B"/><stop offset=".785" stop-color="#B4806B"/><stop offset="1" stop-color="#AC7962"/></linearGradient><linearGradient id="c" x1="4.375" x2="28" y1="30" y2="30" gradientUnits="userSpaceOnUse"><stop stop-color="#AD99C1"/><stop offset="1" stop-color="#AD96C3"/></linearGradient><linearGradient id="d" x1="16.281" x2="16.25" y1="26.547" y2="28.469" gradientUnits="userSpaceOnUse"><stop offset=".729" stop-color="#9883AC"/><stop offset="1" stop-color="#9C84B4" stop-opacity="0"/></linearGradient><linearGradient id="e" x1="2" x2="30.313" y1="27" y2="27" gradientUnits="userSpaceOnUse"><stop stop-color="#868589"/><stop offset=".514" stop-color="#ACAAAC"/><stop offset="1" stop-color="#BCB9C2"/></linearGradient><radialGradient id="f" cx="0" cy="0" r="1" gradientTransform="matrix(0 .78125 -14.5 0 26.188 26.719)" gradientUnits="userSpaceOnUse"><stop stop-color="#DDDAE4"/><stop offset="1" stop-color="#DEDBE4" stop-opacity="0"/></radialGradient><radialGradient id="g" cx="0" cy="0" r="1" gradientTransform="matrix(0 1.5625 -60.1813 0 11.188 28)" gradientUnits="userSpaceOnUse"><stop stop-color="#AF98C5"/><stop offset="1" stop-color="#AE98C5" stop-opacity="0"/></radialGradient></defs></svg>

<svg width="100%" height="100%" viewBox="0 0 32 32" fill="none" xmlns="http://www.w3.org/2000/svg">
<path d="M7.97 16.47L5.61 26H26.38L24.08 16.48C23.88 15.61 23.1 15 22.21 15H9.84C8.96 15 8.18 15.61 7.97 16.47Z" fill="url(#paint0_linear_18_31334)"/>
<path d="M9.84 15C8.96 15 8.18 15.61 7.97 16.47L7.34 19H24.7L24.09 16.48C23.88 15.61 23.1 15 22.21 15H9.84Z" fill="url(#paint1_linear_18_31334)"/>
<path d="M4 28C5.28 29.28 7.02 30 8.83 30H23.17C24.98 30 26.72 29.28 28 28H4Z" fill="url(#paint2_linear_18_31334)"/>
<path d="M4 28C5.28 29.28 7.02 30 8.83 30H23.17C24.98 30 26.72 29.28 28 28H4Z" fill="url(#paint3_linear_18_31334)"/>
<path d="M29 28H3C2.45 28 2 27.55 2 27C2 26.45 2.45 26 3 26H29C29.55 26 30 26.45 30 27C30 27.55 29.55 28 29 28Z" fill="url(#paint4_linear_18_31334)"/>
<path d="M29 28H3C2.45 28 2 27.55 2 27C2 26.45 2.45 26 3 26H29C29.55 26 30 26.45 30 27C30 27.55 29.55 28 29 28Z" fill="url(#paint5_radial_18_31334)"/>
<path d="M29 28H3C2.45 28 2 27.55 2 27C2 26.45 2.45 26 3 26H29C29.55 26 30 26.45 30 27C30 27.55 29.55 28 29 28Z" fill="url(#paint6_radial_18_31334)"/>
<defs>
<linearGradient id="paint0_linear_18_31334" x1="5.61" y1="26" x2="26.38" y2="26" gradientUnits="userSpaceOnUse">
<stop stop-color="#946B53"/>
<stop offset="0.247472" stop-color="#A66C3A"/>
<stop offset="0.53635" stop-color="#CC8B53"/>
<stop offset="0.753009" stop-color="#E0A56C"/>
<stop offset="0.864348" stop-color="#E6A567"/>
<stop offset="1" stop-color="#CC9968"/>
</linearGradient>
<linearGradient id="paint1_linear_18_31334" x1="7.8125" y1="17.3125" x2="24.7" y2="17.3125" gradientUnits="userSpaceOnUse">
<stop stop-color="#714C40"/>
<stop offset="0.247965" stop-color="#7A4A39"/>
<stop offset="0.492228" stop-color="#955F4B"/>
<stop offset="0.784604" stop-color="#B4806B"/>
<stop offset="1" stop-color="#AC7962"/>
</linearGradient>
<linearGradient id="paint2_linear_18_31334" x1="4.375" y1="30" x2="28" y2="30" gradientUnits="userSpaceOnUse">
<stop stop-color="#AD99C1"/>
<stop offset="1" stop-color="#AD96C3"/>
</linearGradient>
<linearGradient id="paint3_linear_18_31334" x1="16.2813" y1="26.5469" x2="16.25" y2="28.4688" gradientUnits="userSpaceOnUse">
<stop offset="0.729399" stop-color="#9883AC"/>
<stop offset="1" stop-color="#9C84B4" stop-opacity="0"/>
</linearGradient>
<linearGradient id="paint4_linear_18_31334" x1="2" y1="27" x2="30.3125" y2="27" gradientUnits="userSpaceOnUse">
<stop stop-color="#868589"/>
<stop offset="0.514349" stop-color="#ACAAAC"/>
<stop offset="1" stop-color="#BCB9C2"/>
</linearGradient>
<radialGradient id="paint5_radial_18_31334" cx="0" cy="0" r="1" gradientUnits="userSpaceOnUse" gradientTransform="translate(26.1875 26.7187) rotate(90) scale(0.78125 14.5)">
<stop stop-color="#DDDAE4"/>
<stop offset="1" stop-color="#DEDBE4" stop-opacity="0"/>
</radialGradient>
<radialGradient id="paint6_radial_18_31334" cx="0" cy="0" r="1" gradientUnits="userSpaceOnUse" gradientTransform="translate(11.1875 28) rotate(90) scale(1.5625 60.1813)">
<stop stop-color="#AF98C5"/>
<stop offset="1" stop-color="#AE98C5" stop-opacity="0"/>
</radialGradient>
</defs>
</svg>
